X:24
T:Angeline The Baker
C:Traditional 
A:Thirty Fiddle Tunes for Mandolin
N:Arranged By B. Baldassari 
R:bluegrass
L:1/8
Q:1/4=218
M:4/4
K:D
|: "D"[A2D2] [B2D2] [d3D3]A | B2 d4 dB | A2 B2 d2 e2 | "G"[BD][BD] [BD][dD] [B2D2] AA | 
|"D"AA BA d2 de | ^fd e^c d2 de | ^fd e^c "G"dA B2 | "D"[AA][AA] [AA]B A2 AA :|
|: "D"[a2A2] ^f/a/f ed de | ^fd e^c d2 de | [a2A2] ^f2 ed d2 | "G"[BD][BD] [BD][dD] [B4D4] |
| "D"[a2A2] ^f2 ed de | ^fd e^c d2 de | ^fd e^c "G"dA B2 | "D"[AA][AA] [AA]B A4 :| 

